src/icons/icons_set_01/039-pin.svg

<svg height="50" viewBox="0 0 50 50" width="50" xmlns="http://www.w3.org/2000/svg"><path d="m14.7385083 41.904975h-.2500595c-3.3708024-3.125744-6.25148809-7.0416762-8.84960654-11.2526786-2.47558928-4.0134553-5.10621547-8.704572-5.50130952-14.5884726-.36258631-5.3987851 1.71790893-9.20469106 4.18599643-11.72028987 2.59311726-2.62062381 6.56656313-4.62860179 11.73029223-4.17349345 7.5818048.66765893 13.4331976 7.4017619 12.7955459 16.14384282-.4100977 5.6613477-2.8856869 9.8648482-5.5013096 14.2283869-2.2955464 3.8384137-5.3137648 8.5020238-8.61205 11.3602042zm-9.44724878-28.2217179c-.46261012 4.961181 2.30804941 8.3269822 5.25124998 9.6848054 6.5315548 3.0007143 14.0408423-2.0004762 13.1556316-9.9248625-.5076209-4.6236006-4.6436054-8.19195-9.4447482-8.01440774-4.8011429.17754226-8.54953516 3.75089286-8.96713457 8.25196424z" transform="translate(10.496548 3.995)"/></svg>

<?xml version="1.0" encoding="UTF-8"?>
<svg width="50px" height="50px" viewBox="0 0 50 50" version="1.1" xmlns="http://www.w3.org/2000/svg" xmlns:xlink="http://www.w3.org/1999/xlink">
    <!-- Generator: Sketch 52.4 (67378) - http://www.bohemiancoding.com/sketch -->
    <title>039-pin</title>
    <desc>Created with Sketch.</desc>
    <g id="039-pin" stroke="none" stroke-width="1" fill="none" fill-rule="evenodd">
        <g id="Group" transform="translate(10.496548, 3.995000)" fill="#000000" fill-rule="nonzero">
            <g id="050-pin">
                <g id="ICONSET-01">
                    <g id="050-pin">
                        <path d="M14.7385083,41.904975 L14.4884488,41.904975 C11.1176464,38.779231 8.23696071,34.8632988 5.63884226,30.6522964 C3.16325298,26.6388411 0.532626786,21.9477244 0.137532738,16.0638238 C-0.225053571,10.6650387 1.85544167,6.85913274 4.32352917,4.34353393 C6.91664643,1.72291012 10.8900923,-0.285067857 16.0538214,0.170040476 C23.6356262,0.837699405 29.487019,7.57180238 28.8493673,16.3138833 C28.4392696,21.975231 25.9636804,26.1787315 23.3480577,30.5422702 C21.0525113,34.3806839 18.0342929,39.044294 14.7360077,41.9024744 L14.7385083,41.904975 Z M5.29125952,13.6832571 C4.8286494,18.6444381 7.59930893,22.0102393 10.5425095,23.3680625 C17.0740643,26.3687768 24.5833518,21.3675863 23.6981411,13.4432 C23.1905202,8.8195994 19.0545357,5.25125 14.2533929,5.42879226 C9.45225,5.60633452 5.70385774,9.17968512 5.28625833,13.6807565 L5.29125952,13.6832571 Z" id="Shape"></path>
                    </g>
                </g>
            </g>
        </g>
    </g>
</svg>
